X: 20412
Q: "Moderate."
M: 6/8
L: 1/8
K: D
dd{f}e d2e | f3- f2a | afd ({e}dc)d | {f}e3- eAA |\
d2d {f}ede | fga z2z |
d2d {f}ede | f3- f2z |\
ddd {f}ede | fga z2z | A>BA ABc | d3 def |\
g3 gfe | a3 afd | A>BA ABc | d3- d2 |]


